!!! OTL: Berkowitz570
!!! Chapter: 1
!!! Section: V
!!! Page: 144
!!! Mode: 
!!! Encoder: DJB
**kern
*staff1
*I"Piano
=1-
*clefC4
*k[]
*C:
*M3/8
8AA/L
8D/
8G/J
=2
*M4/4
4F/
4E-/
8A-/L
8G-/J
4D-/
=3
*M3/8
8BB/L
8E/
8c#/J
=4
4d\
8c\
=5
*M4/4
4B-\
4e-\
8d\L
8c#\J
4F#/
=6
*M3/8
8G#\L
8A\
8B\J
=7
4E/
8E/
=8
*M4/4
4G/
4F/
8BB-/L
8C/J
4C#/
=9
!!linebreak:original
*M3/8
8F#/L
8E/
8BB/J
=10
4E/
8D/
=11
8C#/L
8F#/
8B/J
=12
4c\
8F/
=13
*M3/4
4E-/
4B-\
4E-/
=14
4D-/
4G-/
4BB/
=15
*M3/8
8AA/L
8BB/
8E/J
=16
4D/
8A\
=17
8B\
4F#/
=18
4.c#\
==
*-
